src/svg/uf237-viacoin.svg

<!-- Generated by IcoMoon.io -->
<svg version="1.1" xmlns="http://www.w3.org/2000/svg" width="27" height="32" viewBox="0 0 27 32">
<path d="M27.429 0l-3.429 8h3.429v3.429h-4.893l-0.982 2.286h5.875v3.429h-7.339l-6.375 14.857-6.375-14.857h-7.339v-3.429h5.875l-0.982-2.286h-4.893v-3.429h3.429l-3.429-8h4.571l5.768 13.714h6.75l5.768-13.714h4.571zM13.714 21.714l1.929-4.571h-3.857z"></path>
</svg>

<svg xmlns="http://www.w3.org/2000/svg" width="27" height="32"><path d="M27.429 0L24 8h3.429v3.429h-4.893l-.982 2.286h5.875v3.429H20.09l-6.375 14.857L7.34 17.144H.001v-3.429h5.875l-.982-2.286H.001V8H3.43L.001 0h4.571l5.768 13.714h6.75L22.858 0h4.571zM13.714 21.714l1.929-4.571h-3.857z"/></svg>
